X:1
T:Truth
T:Winter Is Here (Easy Piano Solo) Game Of Thrones OST Season 7 Episode 7 
T: Composed by Ramin Djawadi Piano arrangement by Nicolas Del Gallo Full playthrough and more at https://www.youtube.com/c/NDGmusic If you want to donate, please check out my Patreon ☺ https://www.patreon.com/ndg 
%%score { 1 | ( 2 3 ) }
L:1/8
Q:1/4=50
M:4/4
K:Eb
V:1 treble nm="Piano" snm="Pno."
V:2 bass 
V:3 bass 
V:1
!pp! z8 | [Gg]4 [Cc]4 | [Ee]2 [Ff]2 [Gg]4 | [Cc]4 [Ee]2 [Ff]2 | [Dd]8 | [Ff]4 [B,B]4 | %6
 [Ee]2 [Dd]2 [Ff]4 | [B,B]4 [Ee]2 [Dd]2 | [Cc]8 |[M:3/4] [Dd]4 [Ee]2 | [Dd]4 [B,B]2 | %11
[M:4/4] [Cc]8 |!p! [cc']4 [Bb]2 [cc']2 | [Bb]8 | [Cc]8 | [Gg]8 | [A,A]8 | [Ee]4 [Ff]4 | %18
 !arpeggio![Gg]8 ||!mp! !arpeggio![Gcg]4 c4 | [Ge]2 f2 g4 | c4 e2 f2 | !arpeggio![GBd]8 | f4 B4 | %24
 e2 d2 [Bf]4 | B4 e2 d2 | !arpeggio![FAc]8 |[M:3/4] [Dd]4 [Ee]2 | [Dd]4 [B,B]2 |[M:4/4] [Cc]8 |] %30
V:2
!ped! [C,C]8- | [C,G,C]8- | [C,G,C]8- | [C,-G,C-]8 | [C,C]8- | [C,C]8- | [C,C]8- | [C,C]8- | %8
 [C,C]8- |[M:3/4] [C,C]6- | [C,C]6- |[M:4/4] [C,C]8 | [A,,A,]8 | G,8 | F,8 | E,8 | A,,8 | B,,8 | %18
 C,8 || C8- | C8- | C8 | C8- | C8- | C8- | C8 | C8- |[M:3/4] C6- | C6 |[M:4/4] C,8!ped-up! |] %30
V:3
 x8 | x8 | x8 | x8 | B,8- | B,8- | B,8- | B,8 | A,8 |[M:3/4] x6 | x6 |[M:4/4] G,8 | x8 | x8 | x8 | %15
 x8 | x8 | x8 | x8 || x8 | x8 | x8 | x8 | x8 | x8 | x8 | x8 |[M:3/4] x6 | x6 |[M:4/4] x8 |] %30

